public/icon/svg/Cloudreve.svg

<?xml version="1.0" encoding="UTF-8"?>
<svg width="1025px" height="1025px" viewBox="0 0 1025 1025" version="1.1" xmlns="http://www.w3.org/2000/svg" xmlns:xlink="http://www.w3.org/1999/xlink">
    <title>Cloudreve</title>
    <defs>
        <path d="M1,769.057295 C21.9270399,747.866711 50.9270399,732.866711 88,724.057295 C125.07296,715.247878 163.406293,714.247878 203,721.057295 C237.666667,620.390628 307.666667,563.390628 413,550.057295 C518.333333,536.723961 603,573.057295 667,659.057295 C691,657.723961 714.666667,662.723961 738,674.057295 C761.333333,685.390628 778,700.723961 788,720.057295 C827.579791,708.561627 870.246457,708.894961 916,721.057295 C961.753543,733.219629 998.086876,753.886295 1025,783.057295 L1025,1006.05729 L1,1006.05729 L1,769.057295 Z" id="path-1"></path>
        <filter x="-1.1%" y="-2.4%" width="102.1%" height="104.8%" filterUnits="objectBoundingBox" id="filter-2">
            <feMorphology radius="4" operator="erode" in="SourceAlpha" result="shadowSpreadInner1"></feMorphology>
            <feGaussianBlur stdDeviation="2.5" in="shadowSpreadInner1" result="shadowBlurInner1"></feGaussianBlur>
            <feOffset dx="0" dy="13" in="shadowBlurInner1" result="shadowOffsetInner1"></feOffset>
            <feComposite in="shadowOffsetInner1" in2="SourceAlpha" operator="arithmetic" k2="-1" k3="1" result="shadowInnerInner1"></feComposite>
            <feColorMatrix values="0 0 0 0 0   0 0 0 0 0   0 0 0 0 0  0 0 0 0.5 0" type="matrix" in="shadowInnerInner1"></feColorMatrix>
        </filter>
    </defs>
    <g id="ICON-新版方图标" stroke="none" stroke-width="1" fill="none" fill-rule="evenodd">
        <g id="Cloudreve" transform="translate(0, -0.0008)">
            <path d="M666,865.535447 C602.666667,766.672359 528.666667,718.945351 444,722.354423 C316,730.024835 244,806.728955 202,944.796371 C194.050208,942.124909 143.232765,930.460877 85,949.909979 C54.3333333,959.284927 26,978.034823 0,1006.15967 L0,0.0572947035 C188.338431,0.179093903 529.671764,0.179093903 1024,0.0572947035 L1024,1024.05729 C989.601939,990.346988 964.601939,969.040288 949,960.137195 C905.207595,935.14749 868.050026,934.528161 850,934.569155 C836.666667,933.716887 815.666667,936.699825 787,943.517969 C772,914.114723 742,882.154673 713,873.205859 C698.660726,865.581121 670.64794,864.80465 666,865.535447 Z" id="路径" fill="#0051CD" fill-rule="nonzero"></path>
            <g id="编组-40">
                <path d="M856,735.057295 C914.290809,735.057295 970.720796,726.797448 1024.26043,711.345116 C1024.08681,587.153235 1024,350.057295 1024,0.0572947035 C768,0.0572947035 505.151648,0.038196469 235.454945,0 C231.856931,28.1560521 230,56.8818512 230,86.0572947 C230,444.490097 510.269747,735.057295 856,735.057295 Z" id="椭圆形2" fill="#056FEE"></path>
                <path d="M856,518.057295 C916.090602,518.057295 973.063022,503.52977 1024.11294,477.526276 C1024.03765,328.546955 1024,169.390628 1024,0.0572947035 C881.333333,0.0572947035 695.666667,0.0572947035 467,0.0572947035 C461.848885,27.8289569 459,56.6334685 459,86.0572947 C459,324.644307 636.742954,518.057295 856,518.057295 Z" id="椭圆形3" fill="#02C0FA"></path>
                <path d="M902,324.057295 C947.005504,324.057295 988.911004,309.955059 1024.01575,285.682641 C1024.00525,228.599077 1024,133.390628 1024,0.0572947035 C910,0.0572947035 799.686957,0.066133508 693.06087,0.083811117 C683.33462,26.7498477 678,55.7416511 678,86.0572947 C678,217.501065 778.288216,324.057295 902,324.057295 Z" id="椭圆形4" fill="#00DDFF"></path>
                <g id="矩5" fill="black" fill-opacity="1">
                    <use filter="url(#filter-2)" xlink:href="#path-1"></use>
                </g>
                <path d="M0,787.057295 C20.9270399,765.866711 49.9270399,750.866711 87,742.057295 C124.07296,733.247878 162.406293,732.247878 202,739.057295 C236.666667,638.390628 306.666667,581.390628 412,568.057295 C517.333333,554.723961 602,591.057295 666,677.057295 C690,675.723961 713.666667,680.723961 737,692.057295 C760.333333,703.390628 777,718.723961 787,738.057295 C826.579791,726.561627 869.246457,726.894961 915,739.057295 C960.753543,751.219629 997.086876,771.886295 1024,801.057295 L1024,1024.05729 L0,1024.05729 L0,787.057295 Z" id="矩5" fill="#FFFFFF"></path>
            </g>
        </g>
    </g>
</svg>

<svg xmlns="http://www.w3.org/2000/svg" xmlns:xlink="http://www.w3.org/1999/xlink" width="1025" height="1025"><defs><filter id="a" width="102.1%" height="104.8%" x="-1.1%" y="-2.4%" filterUnits="objectBoundingBox"><feMorphology in="SourceAlpha" radius="4" result="shadowSpreadInner1"/><feGaussianBlur in="shadowSpreadInner1" result="shadowBlurInner1" stdDeviation="2.5"/><feOffset dy="13" in="shadowBlurInner1" result="shadowOffsetInner1"/><feComposite in="shadowOffsetInner1" in2="SourceAlpha" k2="-1" k3="1" operator="arithmetic" result="shadowInnerInner1"/><feColorMatrix in="shadowInnerInner1" values="0 0 0 0 0 0 0 0 0 0 0 0 0 0 0 0 0 0 0.5 0"/></filter><path id="b" d="M1 769.057c20.927-21.19 49.927-36.19 87-45 37.073-8.81 75.406-9.81 115-3 34.667-100.666 104.667-157.666 210-171 105.333-13.333 190 23 254 109 24-1.333 47.667 3.667 71 15 23.333 11.334 40 26.667 50 46 39.58-11.495 82.246-11.162 128 1 45.754 12.163 82.087 32.83 109 62v223H1v-237"/></defs><g fill="none" fill-rule="evenodd"><path fill="#0051CD" fill-rule="nonzero" d="M666 865.535c-63.333-98.863-137.333-146.59-222-143.181-128 7.67-200 84.374-242 222.442-7.95-2.672-58.767-14.336-117 5.113-30.667 9.375-59 28.125-85 56.25V.056c188.338.122 529.672.122 1024 0v1024c-34.398-33.71-59.398-55.017-75-63.92-43.792-24.99-80.95-25.609-99-25.568-13.333-.852-34.333 2.131-63 8.95-15-29.404-45-61.364-74-70.313-14.34-7.625-42.352-8.401-47-7.67"/><path fill="#056FEE" d="M856 735.056c58.29 0 114.72-8.26 168.26-23.712-.173-124.192-.26-361.288-.26-711.288C768 .056 505.152.037 235.455 0A678.721 678.721 0 0 0 230 86.056c0 358.433 280.27 649 626 649"/><path fill="#02C0FA" d="M856 518.056c60.09 0 117.063-14.527 168.113-40.53-.075-148.98-.113-308.136-.113-477.47H467c-5.151 27.772-8 56.577-8 86 0 238.588 177.743 432 397 432"/><path fill="#0DF" d="M902 324.056c45.006 0 86.911-14.102 122.016-38.374-.01-57.084-.016-152.292-.016-285.626-114 0-224.313.01-330.94.027C683.336 26.749 678 55.741 678 86.056c0 131.444 100.288 238 224 238"/><use xlink:href="#b" fill="#000" filter="url(#a)"/><path fill="#FFF" d="M0 787.056c20.927-21.19 49.927-36.19 87-45 37.073-8.809 75.406-9.809 115-3 34.667-100.666 104.667-157.666 210-171 105.333-13.333 190 23 254 109 24-1.333 47.667 3.667 71 15 23.333 11.334 40 26.667 50 46 39.58-11.495 82.246-11.162 128 1 45.754 12.163 82.087 32.83 109 62v223H0v-237"/></g></svg>
